X:440
T:Seamo's Polka
S:http://lesters-tune-a-day.blogspot.co.uk/2013/01/tune-139-seamos-polka.html
N:The 2nd part is only 7 bars.
M:C
L:1/8
K:D
|:\
A2 dA B2 cB | A2 dA B2 cB | Acdf edcB | Acdf edcB |\
A2 dA B2 cB | A2 dA B2 cB | Acdf e2 cA | B2 c2 d4 :|
c2 d2 e2 c2 | B2 A2 d2 e2 | f6 d2 |\
A2 f2 g3 f | f2 e2 B4 | g2 f2 e2 d2 | c6 B2 |]
A2 dd d2 A2 | B2 ee e2 c>B | A2 d2 d2 e2 | f6 d2 |\
A2 d>a g3 f | f2 e2 B4 | e2 AA B2 c2 | d8 |]
